X: 568
T: It is Sickly I Am.
T: is temneasa.c a taim.
R:air
N:"Slow." "Collected from F. O'Neill"
B:O'Neill's 568
Z:Transcribed by J.B. Walsh walsh@math.ubc.ca
M:C
L:1/8
%Q:45
K:G
(de)|(=f>e) fg fedc|B2 {B}A>G G2 (de)|=f>efg (fedB)|d2 eg g3 g|
=f2 (fg){f}e2 dB|B2 (AG) G2 (GA/B/)|c2 =f2 e2 dB|A2 GG G2||
(d>c)|.B2 .A2 .G2 (G>A)|B2 {B}AG G2 (GA)|B2 (=fe) d2 cB|c2 de =f2 dc|
.B.B .A.A .G2 (GA)|B2 (de/f/) Hg2 (d>c)|B3 G TA3 G|G4 G2||


